usr/share/icons/biglinux-icons-material/24/actions/kmouth-phrasebook.svg

<svg xmlns="http://www.w3.org/2000/svg" viewBox="0 0 24 24"><path d="M8 5v3H4v8l3 3v-3h9v-3h1v3l3-3V5H8zm1 1h10v6H9V6zM5 9h3v4h7v2H5V9z" style="fill:currentColor;fill-opacity:1;stroke:none;color:#dedede"/></svg>

<svg xmlns="http://www.w3.org/2000/svg" viewBox="0 0 24 24">
  <defs id="defs3051">
    <style type="text/css" id="current-color-scheme">
      .ColorScheme-Text {
        color:#dedede;
      }
      </style>
  </defs>
 <path style="fill:currentColor;fill-opacity:1;stroke:none" 
     d="M 8 5 L 8 8 L 4 8 L 4 16 L 7 19 L 7 16 L 16 16 L 16 13 L 17 13 L 17 16 L 20 13 L 20 5 L 8 5 z M 9 6 L 19 6 L 19 12 L 16 12 L 15 12 L 9 12 L 9 9 L 9 8 L 9 6 z M 5 9 L 8 9 L 8 13 L 15 13 L 15 15 L 5 15 L 5 9 z "
     class="ColorScheme-Text"
     />
</svg>
